images/logo-light.svg

<svg height="75" viewBox="0 0 362 75" width="362" xmlns="http://www.w3.org/2000/svg"><g fill="#fff"><path d="m100.388688 25.8585772h9.729181v-11.9508454c0-5.01880053 2.516036-8.48482297 8.398695-8.48482297h14.746224v9.98214467h-10.422143c-1.496805 0-2.245196.831837-2.245196 2.4955361v7.9579876h33.262158v41.2595312h-10.47758v-31.2773866h-22.784578v31.2773866h-10.47758v-31.2773866h-9.729181zm43.09039-20.43566837h10.394424v10.39806737h-10.394424zm30.337968 32.08150377c0 1.3309593.692955 2.2875719 2.078885 2.8698666s3.908285 1.0675329 7.567141 1.4557294c4.213228.4436531 7.650283 1.7052726 10.311269 3.7848965s3.991459 4.9771897 3.991459 8.6927843v.4991072c0 4.1037911-1.496782 7.3756836-4.490391 9.8157756-2.99361 2.440092-7.206774 3.6601197-12.639621 3.6601197-3.215358 0-5.959458-.4159185-8.232384-1.2477681-2.272925-.8318495-4.157762-1.8716459-5.654567-3.1194202-1.496804-1.2477743-2.647109-2.6341694-3.450949-4.1592269-.803839-1.5250575-1.344344-3.0085003-1.62153-4.4503728l9.646026-3.1610125c.443498 1.7746124 1.372057 3.3273749 2.785706 4.6583342 1.413649 1.3309592 3.589526 1.9964289 6.527698 1.9964289 2.605549 0 4.393372-.4020546 5.363523-1.2061758.970152-.8041212 1.45522-1.6775502 1.45522-2.620313 0-.5545663-.124732-1.0675325-.374199-1.538914-.249468-.4713814-.706818-.9150278-1.372064-1.3309526-.665247-.4159247-1.566088-.7625235-2.702551-1.0398067s-2.563949-.4991064-4.282503-.6654763c-4.656725-.3881965-8.357103-1.5943602-11.101245-3.6185274-2.744142-2.0241673-4.116192-5.0049168-4.116192-8.942338v-.4991072c0-2.0518955.443491-3.8542092 1.330486-5.406995s2.051159-2.8698612 3.492527-3.9512656c1.441367-1.0814044 3.104458-1.8993775 4.989324-2.4539439 1.884865-.5545663 3.825138-.8318454 5.820877-.8318454 2.605549 0 4.864581.3188709 6.777165.9566222s3.534098 1.4695884 4.864591 2.4955362 2.411502 2.1627918 3.24306 3.4105661 1.469077 2.453938 1.912574 3.6185274l-9.479715 3.8264888c-.498935-1.4973292-1.358199-2.675765-2.577817-3.5353429-1.219619-.8595779-2.799555-1.2893604-4.739858-1.2893604-1.77399 0-3.104463.3188709-3.991459.9566222-.886995.6377514-1.330486 1.4279966-1.330486 2.3707594zm40.496678 0c0 1.3309593.692955 2.2875719 2.078885 2.8698666s3.908285 1.0675329 7.567141 1.4557294c4.213228.4436531 7.650283 1.7052726 10.311269 3.7848965s3.991459 4.9771897 3.991459 8.6927843v.4991072c0 4.1037911-1.496782 7.3756836-4.490391 9.8157756-2.99361 2.440092-7.206774 3.6601197-12.639621 3.6601197-3.215358 0-5.959458-.4159185-8.232384-1.2477681-2.272925-.8318495-4.157762-1.8716459-5.654567-3.1194202-1.496804-1.2477743-2.647109-2.6341694-3.450949-4.1592269-.803839-1.5250575-1.344344-3.0085003-1.62153-4.4503728l9.646026-3.1610125c.443498 1.7746124 1.372057 3.3273749 2.785706 4.6583342 1.413649 1.3309592 3.589526 1.9964289 6.527698 1.9964289 2.605549 0 4.393372-.4020546 5.363523-1.2061758.970152-.8041212 1.45522-1.6775502 1.45522-2.620313 0-.5545663-.124732-1.0675325-.374199-1.538914-.249468-.4713814-.706818-.9150278-1.372064-1.3309526-.665247-.4159247-1.566088-.7625235-2.702551-1.0398067s-2.563949-.4991064-4.282503-.6654763c-4.656725-.3881965-8.357103-1.5943602-11.101245-3.6185274-2.744142-2.0241673-4.116192-5.0049168-4.116192-8.942338v-.4991072c0-2.0518955.443491-3.8542092 1.330486-5.406995s2.051159-2.8698612 3.492527-3.9512656c1.441367-1.0814044 3.104458-1.8993775 4.989324-2.4539439 1.884865-.5545663 3.825138-.8318454 5.820877-.8318454 2.605549 0 4.864581.3188709 6.777165.9566222s3.534098 1.4695884 4.864591 2.4955362 2.411502 2.1627918 3.24306 3.4105661 1.469077 2.453938 1.912574 3.6185274l-9.479715 3.8264888c-.498935-1.4973292-1.358199-2.675765-2.577817-3.5353429-1.219619-.8595779-2.799555-1.2893604-4.739858-1.2893604-1.77399 0-3.104463.3188709-3.991459.9566222-.886995.6377514-1.330486 1.4279966-1.330486 2.3707594zm39.272292-1.6636908h-9.698094v-9.9821446h20.175673v41.2758527l-10.477579-.0163215zm.093065-30.41781297h10.394424v10.39806737h-10.394424zm62.114175 41.56454117c0 3.4383115-.582082 6.4745168-1.746263 9.108707-1.164182 2.6341902-2.744118 4.8524224-4.739858 6.6547631-1.995739 1.8023407-4.28249 3.1748718-6.86032 4.1176346-2.57783.9427629-5.280354 1.4141372-8.107651 1.4141372-2.827298 0-5.529821-.4713743-8.107651-1.4141372-2.577831-.9427628-4.864581-2.3152939-6.860321-4.1176346-1.995739-1.8023407-3.575676-4.0205729-4.739857-6.6547631s-1.746263-5.6703955-1.746263-9.108707v-.9982145c0-3.3828548.582082-6.3913322 1.746263-9.0255224s2.744118-4.8662864 4.739857-6.6963554c1.99574-1.830069 4.28249-3.2164641 6.860321-4.1592269 2.57783-.9427628 5.280353-1.4141372 8.107651-1.4141372 2.827297 0 5.529821.4713744 8.107651 1.4141372s4.864581 2.3291579 6.86032 4.1592269c1.99574 1.830069 3.575676 4.0621652 4.739858 6.6963554 1.164181 2.6341902 1.746263 5.6426676 1.746263 9.0255224zm-21.454092 11.3130973c1.496804 0 2.910432-.2495512 4.240925-.7486609s2.494657-1.2200352 3.492527-2.162798c.997869-.9427628 1.787838-2.0934708 2.369928-3.4521583.582091-1.3586876.873132-2.8975862.873132-4.6167419v-1.6636908c0-1.7191557-.291041-3.2580543-.873132-4.6167419-.58209-1.3586876-1.372059-2.5093956-2.369928-3.4521584-.99787-.9427628-2.162034-1.6636883-3.492527-2.162798s-2.744121-.7486608-4.240925-.7486608c-1.496805 0-2.910432.2495511-4.240925.7486608s-2.494657 1.2200352-3.492527 2.162798-1.787838 2.0934708-2.369929 3.4521584-.873132 2.8975862-.873132 4.6167419v1.6636908c0 1.7191557.291041 3.2580543.873132 4.6167419.582091 1.3586875 1.372059 2.5093955 2.369929 3.4521583s2.162034 1.6636883 3.492527 2.162798 2.74412.7486609 4.240925.7486609zm39.399115 8.8175611h-10.47758v-41.2595312h10.47758v6.1556558h1.496797c.942433-2.3291787 2.466933-4.1314923 4.573547-5.406995 2.106614-1.2755026 4.573533-1.9132444 7.40083-1.9132444 1.99574 0 3.866718.3188709 5.61299.9566222s3.284631 1.6220919 4.615124 2.9530511c1.330493 1.3309593 2.369925 3.0223614 3.118327 5.0742569.748403 2.0518956 1.122598 4.491951 1.122598 7.3202394v26.1199452h-10.47758v-23.4580399c0-2.9392018-.706813-5.2544816-2.120462-6.945909s-3.450936-2.5371285-6.111922-2.5371285c-3.104483 0-5.418952 1.0397964-6.943475 3.1194202-1.524524 2.0796239-2.286774 4.8662781-2.286774 8.3600462z"/><path d="m23.5742168 60.955694c1.5771036-3.0862122 4.7865419-5.1990337 8.4892831-5.1990337 5.262292 0 9.5282225 4.2674256 9.5282225 9.5315617 0 5.2641362-4.2659305 9.5315618-9.5282225 9.5315618-3.7027412 0-6.9121795-2.1128215-8.4892831-5.1990337h-8.8347577c-8.13263309 0-14.72543479-6.5951122-14.72543479-14.7305954s6.5928017-14.7305954 14.72543479-14.7305954h20.7582159l-3.5055762-5.1990337h-17.2526397c-8.13263309 0-14.72543479-6.5951122-14.72543479-14.7305954 0-8.1354831 6.5928017-14.73059535 14.72543479-14.73059535 4.7155931 0 8.662299 1.82137973 11.5238372 5.56122335.1866331.2439174.903725 1.2845631 2.5931092 3.7540648l7.7408874 11.4808465h26.6494806c3.3487313 0 6.0634144-2.7156344 6.0634144-6.0655393 0-3.3499048-2.7146831-6.0655392-6.0634144-6.0655392h-8.8347577c-1.5771036 3.0862121-4.7865418 5.1990336-8.4892831 5.1990336-5.262292 0-9.5282225-4.2674255-9.5282225-9.53156169s4.2659305-9.53156173 9.5282225-9.53156173c3.7027413 0 6.9121795 2.11282151 8.4892831 5.19903367h8.8347577c8.1326331 0 14.7254348 6.59511225 14.7254348 14.73059535 0 8.1354832-6.5928017 14.7305954-14.7254348 14.7305954h-20.807122l3.5054152 5.1990337h17.3017068c8.1326331 0 14.7254348 6.5951122 14.7254348 14.7305954s-6.5928017 14.7305954-14.7254348 14.7305954c-4.5017469 0-8.6780764-2.0390455-11.6197725-5.6913217l-2.14253-3.026397-8.1441689-12.078416h-26.600843c-3.3487313 0-6.06341435 2.7156345-6.06341435 6.0655393s2.71468305 6.0655393 6.06341435 6.0655393zm33.0344752-4.9804486 1.9194061 2.7245712c1.1480037 1.4198785 2.8602788 2.2558774 4.7186754 2.2558774 3.3487313 0 6.0634144-2.7156345 6.0634144-6.0655393s-2.7146831-6.0655393-6.0634144-6.0655393h-11.4593481zm-34.9169674-36.2909507c-1.3624245-1.9914187-2.2731584-3.3130783-2.3068102-3.3570589-1.1682567-1.5268352-2.5464113-2.1628448-4.6454553-2.1628448-3.3487313 0-6.06341435 2.7156344-6.06341435 6.0655392 0 3.3499049 2.71468305 6.0655393 6.06341435 6.0655393h11.4100126z"/></g></svg>

<?xml version="1.0" encoding="UTF-8"?>
<svg width="362px" height="75px" viewBox="0 0 362 75" version="1.1" xmlns="http://www.w3.org/2000/svg" xmlns:xlink="http://www.w3.org/1999/xlink">
    <!-- Generator: Sketch 52.6 (67491) - http://www.bohemiancoding.com/sketch -->
    <title>Group</title>
    <desc>Created with Sketch.</desc>
    <g id="Page-1" stroke="none" stroke-width="1" fill="none" fill-rule="evenodd">
        <g id="Logos-Source" transform="translate(-408.000000, -912.000000)" fill="#FFFFFF" fill-rule="nonzero">
            <g id="Alternates" transform="translate(64.000000, 442.000000)">
                <g id="B&amp;W-Reversal" transform="translate(304.000000, 430.000000)">
                    <g id="Group" transform="translate(40.000000, 40.000000)">
                        <path d="M100.388688,25.8585772 L110.117869,25.8585772 L110.117869,13.9077318 C110.117869,8.88893127 112.633905,5.42290883 118.516564,5.42290883 L133.262788,5.42290883 L133.262788,15.4050535 L122.840645,15.4050535 C121.34384,15.4050535 120.595449,16.2368905 120.595449,17.9005896 L120.595449,25.8585772 L153.857607,25.8585772 L153.857607,67.1181084 L143.380027,67.1181084 L143.380027,35.8407218 L120.595449,35.8407218 L120.595449,67.1181084 L110.117869,67.1181084 L110.117869,35.8407218 L100.388688,35.8407218 L100.388688,25.8585772 Z M143.479078,5.42290883 L153.873502,5.42290883 L153.873502,15.8209762 L143.479078,15.8209762 L143.479078,5.42290883 Z M173.817046,37.5044126 C173.817046,38.8353719 174.510001,39.7919845 175.895931,40.3742792 C177.281861,40.9565739 179.804216,41.4418121 183.463072,41.8300086 C187.6763,42.2736617 191.113355,43.5352812 193.774341,45.6149051 C196.435327,47.694529 197.7658,50.5920948 197.7658,54.3076894 L197.7658,54.8067966 C197.7658,58.9105877 196.269018,62.1824802 193.275409,64.6225722 C190.281799,67.0626642 186.068635,68.2826919 180.635788,68.2826919 C177.42043,68.2826919 174.67633,67.8667734 172.403404,67.0349238 C170.130479,66.2030743 168.245642,65.1632779 166.748837,63.9155036 C165.252033,62.6677293 164.101728,61.2813342 163.297888,59.7562767 C162.494049,58.2312192 161.953544,56.7477764 161.676358,55.3059039 L171.322384,52.1448914 C171.765882,53.9195038 172.694441,55.4722663 174.10809,56.8032256 C175.521739,58.1341848 177.697616,58.7996545 180.635788,58.7996545 C183.241337,58.7996545 185.02916,58.3975999 185.999311,57.5934787 C186.969463,56.7893575 187.454531,55.9159285 187.454531,54.9731657 C187.454531,54.4185994 187.329799,53.9056332 187.080332,53.4342517 C186.830864,52.9628703 186.373514,52.5192239 185.708268,52.1032991 C185.043021,51.6873744 184.14218,51.3407756 183.005717,51.0634924 C181.869254,50.7862092 180.441768,50.564386 178.723214,50.3980161 C174.066489,50.0098196 170.366111,48.8036559 167.621969,46.7794887 C164.877827,44.7553214 163.505777,41.7745719 163.505777,37.8371507 L163.505777,37.3380435 C163.505777,35.286148 163.949268,33.4838343 164.836263,31.9310485 C165.723258,30.3782627 166.887422,29.0611873 168.32879,27.9797829 C169.770157,26.8983785 171.433248,26.0804054 173.318114,25.525839 C175.202979,24.9712727 177.143252,24.6939936 179.138991,24.6939936 C181.74454,24.6939936 184.003572,25.0128645 185.916156,25.6506158 C187.82874,26.2883671 189.450254,27.1202042 190.780747,28.146152 C192.11124,29.1720998 193.192249,30.3089438 194.023807,31.5567181 C194.855365,32.8044924 195.492884,34.0106561 195.936381,35.1752455 L186.456666,39.0017343 C185.957731,37.5044051 185.098467,36.3259693 183.878849,35.4663914 C182.65923,34.6068135 181.079294,34.177031 179.138991,34.177031 C177.365001,34.177031 176.034528,34.4959019 175.147532,35.1336532 C174.260537,35.7714046 173.817046,36.5616498 173.817046,37.5044126 Z M214.313724,37.5044126 C214.313724,38.8353719 215.006679,39.7919845 216.392609,40.3742792 C217.778539,40.9565739 220.300894,41.4418121 223.95975,41.8300086 C228.172978,42.2736617 231.610033,43.5352812 234.271019,45.6149051 C236.932005,47.694529 238.262478,50.5920948 238.262478,54.3076894 L238.262478,54.8067966 C238.262478,58.9105877 236.765696,62.1824802 233.772087,64.6225722 C230.778477,67.0626642 226.565313,68.2826919 221.132466,68.2826919 C217.917108,68.2826919 215.173008,67.8667734 212.900082,67.0349238 C210.627157,66.2030743 208.74232,65.1632779 207.245515,63.9155036 C205.748711,62.6677293 204.598406,61.2813342 203.794566,59.7562767 C202.990727,58.2312192 202.450222,56.7477764 202.173036,55.3059039 L211.819062,52.1448914 C212.26256,53.9195038 213.191119,55.4722663 214.604768,56.8032256 C216.018417,58.1341848 218.194294,58.7996545 221.132466,58.7996545 C223.738015,58.7996545 225.525838,58.3975999 226.495989,57.5934787 C227.466141,56.7893575 227.951209,55.9159285 227.951209,54.9731657 C227.951209,54.4185994 227.826477,53.9056332 227.57701,53.4342517 C227.327542,52.9628703 226.870192,52.5192239 226.204946,52.1032991 C225.539699,51.6873744 224.638858,51.3407756 223.502395,51.0634924 C222.365932,50.7862092 220.938446,50.564386 219.219892,50.3980161 C214.563167,50.0098196 210.862789,48.8036559 208.118647,46.7794887 C205.374505,44.7553214 204.002455,41.7745719 204.002455,37.8371507 L204.002455,37.3380435 C204.002455,35.286148 204.445946,33.4838343 205.332941,31.9310485 C206.219936,30.3782627 207.3841,29.0611873 208.825468,27.9797829 C210.266835,26.8983785 211.929926,26.0804054 213.814792,25.525839 C215.699657,24.9712727 217.63993,24.6939936 219.635669,24.6939936 C222.241218,24.6939936 224.50025,25.0128645 226.412834,25.6506158 C228.325418,26.2883671 229.946932,27.1202042 231.277425,28.146152 C232.607918,29.1720998 233.688927,30.3089438 234.520485,31.5567181 C235.352043,32.8044924 235.989562,34.0106561 236.433059,35.1752455 L226.953344,39.0017343 C226.454409,37.5044051 225.595145,36.3259693 224.375527,35.4663914 C223.155908,34.6068135 221.575972,34.177031 219.635669,34.177031 C217.861679,34.177031 216.531206,34.4959019 215.64421,35.1336532 C214.757215,35.7714046 214.313724,36.5616498 214.313724,37.5044126 Z M253.586016,35.8407218 L243.887922,35.8407218 L243.887922,25.8585772 L264.063595,25.8585772 L264.063595,67.1344299 L253.586016,67.1181084 L253.586016,35.8407218 Z M253.679081,5.42290883 L264.073505,5.42290883 L264.073505,15.8209762 L253.679081,15.8209762 L253.679081,5.42290883 Z M315.793256,46.98745 C315.793256,50.4257615 315.211174,53.4619668 314.046993,56.096157 C312.882811,58.7303472 311.302875,60.9485794 309.307135,62.7509201 C307.311396,64.5532608 305.024645,65.9257919 302.446815,66.8685547 C299.868985,67.8113176 297.166461,68.2826919 294.339164,68.2826919 C291.511866,68.2826919 288.809343,67.8113176 286.231513,66.8685547 C283.653682,65.9257919 281.366932,64.5532608 279.371192,62.7509201 C277.375453,60.9485794 275.795516,58.7303472 274.631335,56.096157 C273.467154,53.4619668 272.885072,50.4257615 272.885072,46.98745 L272.885072,45.9892355 C272.885072,42.6063807 273.467154,39.5979033 274.631335,36.9637131 C275.795516,34.3295229 277.375453,32.0974267 279.371192,30.2673577 C281.366932,28.4372887 283.653682,27.0508936 286.231513,26.1081308 C288.809343,25.165368 291.511866,24.6939936 294.339164,24.6939936 C297.166461,24.6939936 299.868985,25.165368 302.446815,26.1081308 C305.024645,27.0508936 307.311396,28.4372887 309.307135,30.2673577 C311.302875,32.0974267 312.882811,34.3295229 314.046993,36.9637131 C315.211174,39.5979033 315.793256,42.6063807 315.793256,45.9892355 L315.793256,46.98745 Z M294.339164,58.3005473 C295.835968,58.3005473 297.249596,58.0509961 298.580089,57.5518864 C299.910582,57.0527767 301.074746,56.3318512 302.072616,55.3890884 C303.070485,54.4463256 303.860454,53.2956176 304.442544,51.9369301 C305.024635,50.5782425 305.315676,49.0393439 305.315676,47.3201882 L305.315676,45.6564974 C305.315676,43.9373417 305.024635,42.3984431 304.442544,41.0397555 C303.860454,39.6810679 303.070485,38.5303599 302.072616,37.5875971 C301.074746,36.6448343 299.910582,35.9239088 298.580089,35.4247991 C297.249596,34.9256894 295.835968,34.6761383 294.339164,34.6761383 C292.842359,34.6761383 291.428732,34.9256894 290.098239,35.4247991 C288.767746,35.9239088 287.603582,36.6448343 286.605712,37.5875971 C285.607842,38.5303599 284.817874,39.6810679 284.235783,41.0397555 C283.653692,42.3984431 283.362651,43.9373417 283.362651,45.6564974 L283.362651,47.3201882 C283.362651,49.0393439 283.653692,50.5782425 284.235783,51.9369301 C284.817874,53.2956176 285.607842,54.4463256 286.605712,55.3890884 C287.603582,56.3318512 288.767746,57.0527767 290.098239,57.5518864 C291.428732,58.0509961 292.842359,58.3005473 294.339164,58.3005473 Z M333.738279,67.1181084 L323.260699,67.1181084 L323.260699,25.8585772 L333.738279,25.8585772 L333.738279,32.014233 L335.235076,32.014233 C336.177509,29.6850543 337.702009,27.8827407 339.808623,26.607238 C341.915237,25.3317354 344.382156,24.6939936 347.209453,24.6939936 C349.205193,24.6939936 351.076171,25.0128645 352.822443,25.6506158 C354.568715,26.2883671 356.107074,27.2727077 357.437567,28.6036669 C358.76806,29.9346262 359.807492,31.6260283 360.555894,33.6779238 C361.304297,35.7298194 361.678492,38.1698748 361.678492,40.9981632 L361.678492,67.1181084 L351.200912,67.1181084 L351.200912,43.6600685 C351.200912,40.7208667 350.494099,38.4055869 349.08045,36.7141595 C347.666801,35.0227321 345.629514,34.177031 342.968528,34.177031 C339.864045,34.177031 337.549576,35.2168274 336.025053,37.2964512 C334.500529,39.3760751 333.738279,42.1627293 333.738279,45.6564974 L333.738279,67.1181084 Z" id="fission"></path>
                        <path d="M23.5742168,60.955694 C25.1513204,57.8694818 28.3607587,55.7566603 32.0634999,55.7566603 C37.3257919,55.7566603 41.5917224,60.0240859 41.5917224,65.288222 C41.5917224,70.5523582 37.3257919,74.8197838 32.0634999,74.8197838 C28.3607587,74.8197838 25.1513204,72.7069623 23.5742168,69.6207501 L14.7394591,69.6207501 C6.60682601,69.6207501 0.0140243096,63.0256379 0.0140243096,54.8901547 C0.0140243096,46.7546715 6.60682601,40.1595593 14.7394591,40.1595593 L35.497675,40.1595593 L31.9920988,34.9605256 L14.7394591,34.9605256 C6.60682601,34.9605256 0.0140243096,28.3654134 0.0140243096,20.2299302 C0.0140243096,12.0944471 6.60682601,5.49933485 14.7394591,5.49933485 C19.4550522,5.49933485 23.4017581,7.32071458 26.2632963,11.0605582 C26.4499294,11.3044756 27.1670213,12.3451213 28.8564055,14.814623 L36.5972929,26.2954695 L63.2467735,26.2954695 C66.5955048,26.2954695 69.3101879,23.5798351 69.3101879,20.2299302 C69.3101879,16.8800254 66.5955048,14.164391 63.2467735,14.164391 L54.4120158,14.164391 C52.8349122,17.2506031 49.625474,19.3634246 45.9227327,19.3634246 C40.6604407,19.3634246 36.3945102,15.0959991 36.3945102,9.83186291 C36.3945102,4.56772672 40.6604407,0.300301181 45.9227327,0.300301181 C49.625474,0.300301181 52.8349122,2.41312269 54.4120158,5.49933485 L63.2467735,5.49933485 C71.3794066,5.49933485 77.9722083,12.0944471 77.9722083,20.2299302 C77.9722083,28.3654134 71.3794066,34.9605256 63.2467735,34.9605256 L42.4396515,34.9605256 L45.9450667,40.1595593 L63.2467735,40.1595593 C71.3794066,40.1595593 77.9722083,46.7546715 77.9722083,54.8901547 C77.9722083,63.0256379 71.3794066,69.6207501 63.2467735,69.6207501 C58.7450266,69.6207501 54.5686971,67.5817046 51.627001,63.9294284 L49.484471,60.9030314 L41.3403021,48.8246154 L14.7394591,48.8246154 C11.3907278,48.8246154 8.67604475,51.5402499 8.67604475,54.8901547 C8.67604475,58.2400595 11.3907278,60.955694 14.7394591,60.955694 L23.5742168,60.955694 Z M56.608692,55.9752454 L58.5280981,58.6998166 C59.6761018,60.1196951 61.3883769,60.955694 63.2467735,60.955694 C66.5955048,60.955694 69.3101879,58.2400595 69.3101879,54.8901547 C69.3101879,51.5402499 66.5955048,48.8246154 63.2467735,48.8246154 L51.7874254,48.8246154 L56.608692,55.9752454 Z M21.6917246,19.6842947 C20.3293001,17.692876 19.4185662,16.3712164 19.3849144,16.3272358 C18.2166577,14.8004006 16.8385031,14.164391 14.7394591,14.164391 C11.3907278,14.164391 8.67604475,16.8800254 8.67604475,20.2299302 C8.67604475,23.5798351 11.3907278,26.2954695 14.7394591,26.2954695 L26.1494717,26.2954695 L21.6917246,19.6842947 Z" id="Fission-Icon"></path>
                    </g>
                </g>
            </g>
        </g>
    </g>
</svg>
